assets/img/icons_pokemon/rock.svg

<svg width="256" height="256" viewBox="0 0 256 256" fill="none" xmlns="http://www.w3.org/2000/svg">
<g clip-path="url(#clip0_57_773)">
<path d="M128 256C198.692 256 256 198.692 256 128C256 57.3075 198.692 0 128 0C57.3075 0 0 57.3075 0 128C0 198.692 57.3075 256 128 256Z" fill="#A9A481"/>
<path d="M199.67 98.2298L180.05 78.6098L183.6 101.99C183.63 102.18 183.4 102.3 183.26 102.16L154.08 72.9798C153.94 72.8398 154.06 72.6098 154.25 72.6398L177.63 76.1898L157.76 56.3198C157.76 56.3198 157.67 56.2598 157.62 56.2598H98.3598C98.3098 56.2598 98.2598 56.2798 98.2198 56.3198L56.3198 98.2198C56.3198 98.2198 56.2598 98.3098 56.2598 98.3598V157.62C56.2598 157.67 56.2798 157.72 56.3198 157.76L75.8498 177.29L66.1398 132.24C66.0998 132.05 66.3398 131.92 66.4798 132.06L124.25 189.83C124.39 189.97 124.26 190.21 124.07 190.17L79.0198 180.46L98.2298 199.67C98.2298 199.67 98.3198 199.73 98.3698 199.73H157.63C157.68 199.73 157.73 199.71 157.77 199.67L177.01 180.43L131.87 190.18C131.68 190.22 131.55 189.98 131.69 189.84L189.45 132.08C189.59 131.94 189.83 132.07 189.79 132.26L180.04 177.4L199.68 157.76C199.68 157.76 199.74 157.67 199.74 157.62V98.3598C199.74 98.3098 199.72 98.2598 199.68 98.2198L199.67 98.2298Z" fill="white"/>
</g>
<defs>
<clipPath id="clip0_57_773">
<rect width="256" height="256" fill="white"/>
</clipPath>
</defs>
</svg>

<?xml version="1.0" encoding="UTF-8"?>
<svg id="Layer_1" data-name="Layer 1" xmlns="http://www.w3.org/2000/svg" viewBox="0 0 256 256">
  <defs>
    <style>
      .cls-1 {
        fill: #fff;
      }

      .cls-2 {
        fill: #a9a481;
      }
    </style>
  </defs>
  <circle class="cls-2" cx="128" cy="128" r="128"/>
  <path class="cls-1" d="M199.67,98.23l-19.62-19.62,3.55,23.38c.03,.19-.2,.31-.34,.17l-29.18-29.18c-.14-.14-.02-.37,.17-.34l23.38,3.55-19.87-19.87s-.09-.06-.14-.06h-59.26c-.05,0-.1,.02-.14,.06l-41.9,41.9s-.06,.09-.06,.14v59.26c0,.05,.02,.1,.06,.14l19.53,19.53-9.71-45.05c-.04-.19,.2-.32,.34-.18l57.77,57.77c.14,.14,.01,.38-.18,.34l-45.05-9.71,19.21,19.21s.09,.06,.14,.06h59.26c.05,0,.1-.02,.14-.06l19.24-19.24-45.14,9.75c-.19,.04-.32-.2-.18-.34l57.76-57.76c.14-.14,.38-.01,.34,.18l-9.75,45.14,19.64-19.64s.06-.09,.06-.14v-59.26c0-.05-.02-.1-.06-.14Z"/>
</svg>
